build/images/icon-check.svg

<svg width="20" height="20" viewBox="0 0 20 20" fill="none" xmlns="http://www.w3.org/2000/svg">
<rect width="20" height="20" rx="10" fill="#DAE1E7"/>
<path d="M9.56225 13.4953C9.14374 13.9631 8.46468 13.9631 8.04637 13.4953L5.69773 10.8701C5.27922 10.4026 5.27922 9.64354 5.69773 9.17598C6.11603 8.70819 6.7951 8.70819 7.2136 9.17598L8.61293 10.7399C8.71857 10.8577 8.89005 10.8577 8.99589 10.7399L12.7849 6.50471C13.2032 6.03692 13.8822 6.03692 14.3007 6.50471C14.5017 6.72935 14.6146 7.03413 14.6146 7.35179C14.6146 7.66944 14.5017 7.97422 14.3007 8.19886L9.56225 13.4953Z" fill="white"/>
</svg>

<svg width="20" height="20" fill="none" xmlns="http://www.w3.org/2000/svg"><rect width="20" height="20" rx="10" fill="#DAE1E7"/><path d="M9.562 13.495a.994.994 0 01-1.516 0L5.698 10.87a1.3 1.3 0 010-1.694.994.994 0 011.516 0l1.399 1.564a.252.252 0 00.383 0l3.789-4.235a.994.994 0 011.516 0c.2.224.314.53.314.847 0 .317-.113.622-.314.847l-4.739 5.296z" fill="#fff"/></svg>
